X:16
T:Dance of the Honeybees
Z: id:dc-hornpipe-15
M:C|
L:1/8
K:D Major
AG|F2FE DFAF|G2FG E3F|GFGA Bded|cege cAGE|!
F2FE DFAF|G2FG E3F|GFGA Bded|cAGE D2:|!
(3ABc|d2ad fded|FGFE DEFA|Beed Bded|cdef gece|!
d2ad fded|FGFE DEFA|Bdef gfed|cAGE D2:|!


